X:525
T:Marquis of Huntly's Welcome to the Royal Highlanders, The
R:Strathspey
B:The Athole Collection
M:C
L:1/8
K:F
c|A<F FA/B/ c>dc>B|A<F c>A B<G G>B|A<F FA/B/ c>dc>A|
C>FE>G A<F~F:|
e|f>cf>g a>fg>f|c>f b/a/g/f/ e<g g>a|~f>cf>g a>fc>A|C>FE>G F<A F>e|
~f>cf>g a>fg>f|c>f b/a/g/f/ e<g ga/b/|a>fg>e f>dc>A|B<dc>B A<FF||

